X:84
T:Les Chats Sauvages de Madame Cross 
R:polka
C: 1999, 2010 L.E. McCullough 
M:2/4
L:1/8
K:Bmin 
|:Bd fd|Bd fd|Ac ee/f/|ec (3cBA|
Bd fd|Bd f>g|f>e cf|(3ecA BA:|
Bd fd|Ac eA|GB df|g>a (3gfe|
Bd fd|Ac eA|GB dF|(3GFE B>A|
Bd fd|Ac eA|GB df|g>a (3gfe|
f>d Bf| a>g  (3gfe|f>d (3ecA|B2>A|]

